images/SVG/head/icons8-instagram.svg

<?xml version="1.0"?><svg fill="#2986FF" xmlns="http://www.w3.org/2000/svg"  viewBox="0 0 24 24" width="24px" height="24px">    <path d="M 8 3 C 5.239 3 3 5.239 3 8 L 3 16 C 3 18.761 5.239 21 8 21 L 16 21 C 18.761 21 21 18.761 21 16 L 21 8 C 21 5.239 18.761 3 16 3 L 8 3 z M 18 5 C 18.552 5 19 5.448 19 6 C 19 6.552 18.552 7 18 7 C 17.448 7 17 6.552 17 6 C 17 5.448 17.448 5 18 5 z M 12 7 C 14.761 7 17 9.239 17 12 C 17 14.761 14.761 17 12 17 C 9.239 17 7 14.761 7 12 C 7 9.239 9.239 7 12 7 z M 12 9 A 3 3 0 0 0 9 12 A 3 3 0 0 0 12 15 A 3 3 0 0 0 15 12 A 3 3 0 0 0 12 9 z"/></svg>

<?xml version="1.0" encoding="utf-8"?>
<!-- Generator: Adobe Illustrator 27.2.0, SVG Export Plug-In . SVG Version: 6.00 Build 0)  -->
<svg version="1.1" id="Warstwa_1" xmlns="http://www.w3.org/2000/svg" xmlns:xlink="http://www.w3.org/1999/xlink" x="0px" y="0px"
	 viewBox="0 0 24 24" style="enable-background:new 0 0 24 24;" xml:space="preserve">
<style type="text/css">
	.st0{fill:#FFFFFF;}
</style>
<path class="st0" d="M8,3C5.2,3,3,5.2,3,8v8c0,2.8,2.2,5,5,5h8c2.8,0,5-2.2,5-5V8c0-2.8-2.2-5-5-5H8z M18,5c0.6,0,1,0.4,1,1
	s-0.4,1-1,1s-1-0.4-1-1S17.4,5,18,5z M12,7c2.8,0,5,2.2,5,5s-2.2,5-5,5s-5-2.2-5-5S9.2,7,12,7z M12,9c-1.7,0-3,1.3-3,3s1.3,3,3,3
	s3-1.3,3-3S13.7,9,12,9z"/>
</svg>
